X: 11671
T: GENERAL TOM THUMB'S MARCH
Q: "Pompously."
%R: march
B: W. Hamilton "Universal Tune-Book" Vol. 1 Glasgow 1844 p.167 #1
S: http://imslp.org/wiki/Hamilton's_Universal_Tune-Book_(Various)
Z: 2016 John Chambers <jc:trillian.mit.edu>
M: C
L: 1/8
K: C
%%stretchstaff 0
% - - - - - - - - - - - - - - - - - - - - - - - - -
|:\
e2e>e e2dd | c2c>c c2BB |\
A2(3(ABc) B2(3(Bcd) | c2c>c c2(Bc) |\
d2(cd) e2(dc) | d2(3(def) e2d2 |\
(3(cBc) (3(dcB) A2B2 | A2A>A A2z2 ::\
e2B>B B2c2 | (B>A)(B>c) B2c2 |
d2c2 B2A2 | B2B>B B2(cd) |\
e2(cd) e2(f>d) | e2(c>d) e2(f>d) |\
(e>c)(d>B) (3(cBA) (3(edc) | B2B>B B2E2 |\
A2(3(ABc) B2(3(Bcd) | c2(3(cde) d2(3(def) |\
(3(eag) (3(fed) c2B2 | A2A>A A2z2 :|
% - - - - - - - - - - - - - - - - - - - - - - - - -

%%sep 1 1 500
%%sep 1 1 500

